packages/icons/src/blue-black-cluster.svg

<svg height="28" width="34" xmlns="http://www.w3.org/2000/svg" xmlns:xlink="http://www.w3.org/1999/xlink"><radialGradient id="a" cx="50%" cy="50%" gradientTransform="matrix(0 -1 .91882 0 .04 1)" r="100%"><stop offset="0" stop-color="#28acff"/><stop offset="1" stop-color="#289fea"/></radialGradient><g fill="none" fill-rule="evenodd"><path d="m16.732 9.378 3.987 2.114v4.152l-3.987 2.115-3.986-2.115v-4.152zm4.764 7.754 3.987 2.114v4.152l-3.987 2.115-3.986-2.115v-4.152zm-10.017-.103 3.987 2.115v4.151l-3.987 2.115-3.987-2.115v-4.151zm15.377-7.651 3.987 2.114v4.152l-3.987 2.115-3.987-2.115v-4.152z" stroke="#4b4b4b" stroke-width="1.102"/><path d="m5.609 7.754 4.537 2.407v4.814l-4.536 2.407-4.54-2.407v-4.814z" fill="url(#a)" transform="translate(1 1)"/><path d="m22.092 1.624 3.987 2.114v4.152l-3.987 2.115-3.987-2.115v-4.152zm-10.124 0 3.987 2.114v4.152l-3.987 2.115-3.986-2.115v-4.152z" stroke="#4b4b4b" stroke-width="1.102"/></g></svg>

<svg width="34" height="28" xmlns="http://www.w3.org/2000/svg"><defs><radialGradient cx="50%" cy="50%" fx="50%" fy="50%" r="100%" gradientTransform="matrix(0 -1 .91882 0 .04 1)" id="a"><stop stop-color="#28ACFF" offset="0%"/><stop stop-color="#289FEA" offset="100%"/></radialGradient></defs><g fill="none" fill-rule="evenodd"><path d="M16.732 9.378l3.987 2.114v4.152l-3.987 2.115-3.986-2.115v-4.152l3.986-2.114zM21.496 17.132l3.987 2.114v4.152l-3.987 2.115-3.986-2.115v-4.152l3.986-2.114zM11.479 17.029l3.987 2.115v4.151l-3.987 2.115-3.987-2.115v-4.151l3.987-2.115zM26.856 9.378l3.987 2.114v4.152l-3.987 2.115-3.987-2.115v-4.152l3.987-2.114z" stroke="#4B4B4B" stroke-width="1.102"/><path fill="url(#a)" d="M5.609 7.754l4.537 2.407v4.814L5.61 17.382 1.07 14.975v-4.814z" transform="translate(1 1)"/><path d="M22.092 1.624l3.987 2.114V7.89l-3.987 2.115-3.987-2.115V3.738l3.987-2.114zM11.968 1.624l3.987 2.114V7.89l-3.987 2.115L7.982 7.89V3.738l3.986-2.114z" stroke="#4B4B4B" stroke-width="1.102"/></g></svg>
